X:10539
T:Mazurka d'Auvergne
A:Auvergne
O:France
M:3/4
L:1/8
Q:1/4=150
K:C
G AB|:c2ce de|c2cG AB|cB ce de|1c2 cG AB:|2c4eg||
f2ed eg|d2de fd|ec Bc dc|BA G2 eg|
f2 ed eg|d2 de fd|ec Bc dB|c3||
